X: 13
T:Prelude by Dean(13). TBe.013
M:4/4
L:1/16
Q:200
C:Mr. Thomas Dean
S:Thomas Bennet MS,1718, VWMLt
R:misc.
O:England
H:1718
Z:vmp.C. Graebe..
K:F major
F4A4c4A4 | f4c4a4f4 | A2B2c2A2 F2G2A2F2 |\
 B2c2d2B2 G2A2B2G2 |!
g2a2g2f2 e2d2e2c2 |fefc dcdB BABG AcAF |!
 agfe defd gfed cdec | f2F2A2c2 f8 ||
